src/icons/android.svg

<?xml version="1.0" encoding="UTF-8" standalone="no"?>
<svg width="256px" height="301px" viewBox="0 0 256 301" version="1.1" xmlns="http://www.w3.org/2000/svg" xmlns:xlink="http://www.w3.org/1999/xlink" preserveAspectRatio="xMidYMid">
	<g>
		<path d="M78.3890161,0.858476242 C76.9846593,0.871877584 75.5269206,1.21067383 74.1988355,1.94683705 C69.9813154,4.28464966 68.4344792,9.70448752 70.7705059,13.9187887 L80.2936432,31.1148585 C57.3501835,45.3109605 42.146676,69.5583356 42.146676,97.23264 C42.146676,97.3488107 42.1463538,97.5233203 42.146676,97.6951925 C42.1467894,97.7558421 42.1461099,97.7904107 42.146676,97.8584397 C42.1467112,97.9488816 42.146676,98.0809536 42.146676,98.1033235 L42.146676,102.37513 C37.7401995,97.3051619 31.2627337,94.103607 24.0255064,94.103607 C10.766574,94.103607 0,104.870185 0,118.129121 L0,192.137501 C0,205.396437 10.766574,216.163015 24.0255064,216.163015 C31.2627337,216.163015 37.7401995,212.96146 42.146676,207.891492 L42.146676,218.258109 C42.146676,232.234601 53.5833566,243.671281 67.5598484,243.671281 L74.0083724,243.671281 L74.0083724,276.594135 C74.0083724,289.853131 84.774955,300.619649 98.0338856,300.619649 C111.292821,300.619649 122.0594,289.853131 122.0594,276.594135 L122.0594,243.671281 L133.215081,243.671281 L133.215081,276.594135 C133.215081,289.853131 143.981659,300.619649 157.240595,300.619649 C170.499522,300.619649 181.266118,289.853131 181.266118,276.594135 L181.266118,243.671281 L187.714637,243.671281 C201.691129,243.671281 213.127809,232.234601 213.127809,218.258109 L213.127809,207.891492 C217.534299,212.96146 224.011752,216.163015 231.248984,216.163015 C244.507919,216.163015 255.274498,205.396437 255.274498,192.137501 L255.274498,118.129121 C255.274498,104.870185 244.507919,94.103607 231.248984,94.103607 C224.011752,94.103607 217.534299,97.3051619 213.127809,102.37513 L213.127809,98.1849514 L213.127809,98.1033407 C213.128367,97.9723769 213.127955,97.8421262 213.127809,97.8584655 C213.129527,97.5976548 213.127809,97.3898395 213.127809,97.2326572 C213.127809,69.5631979 197.890397,45.339215 174.95363,31.1420821 L184.503985,13.918763 C186.840011,9.70446174 185.293178,4.28462389 181.075655,1.94681128 C179.747565,1.21064805 178.289834,0.871868993 176.885477,0.85845047 C173.770979,0.828641074 170.714038,2.4700306 169.103704,5.37514094 L159.118011,23.4146964 C149.353914,19.811505 138.730068,17.8368515 127.637245,17.8368515 C116.555726,17.8368515 105.912363,19.7912913 96.1564693,23.3874813 L86.1707769,5.37514094 C84.5604527,2.47002201 81.503506,0.828709799 78.3890161,0.85845047 L78.3890161,0.858476242 Z" fill="#FFFFFF"></path>
		<path d="M24.0260725,100.361664 C14.1317,100.361664 6.25861893,108.234747 6.25861893,118.129121 L6.25861893,192.137501 C6.25861893,202.031875 14.1317,209.904958 24.0260725,209.904958 C33.9204441,209.904958 41.7935257,202.031875 41.7935257,192.137501 L41.7935257,118.129121 C41.7935257,108.234747 33.9204441,100.361664 24.0260725,100.361664 L24.0260725,100.361664 Z M231.249551,100.361664 C221.355176,100.361664 213.482094,108.234747 213.482094,118.129121 L213.482094,192.137501 C213.482094,202.031875 221.355176,209.904958 231.249551,209.904958 C241.143925,209.904958 249.016999,202.031875 249.016999,192.137501 L249.016999,118.129121 C249.016999,108.234747 241.143925,100.361664 231.249551,100.361664 L231.249551,100.361664 Z" fill="#A4C639"></path>
		<path d="M98.0338856,184.818075 C88.1395114,184.818075 80.2664341,192.691157 80.2664341,202.585531 L80.2664341,276.593963 C80.2664341,286.488363 88.1395114,294.361308 98.0338856,294.361308 C107.92826,294.361308 115.801342,286.488363 115.801342,276.593963 L115.801342,202.585531 C115.801342,192.691157 107.92826,184.818075 98.0338856,184.818075 L98.0338856,184.818075 Z M157.240595,184.818075 C147.346221,184.818075 139.473138,192.691157 139.473138,202.585531 L139.473138,276.593963 C139.473138,286.488363 147.346221,294.361308 157.240595,294.361308 C167.134969,294.361308 175.008043,286.488363 175.008043,276.593963 L175.008043,202.585531 C175.008043,192.691157 167.134969,184.818075 157.240595,184.818075 L157.240595,184.818075 Z" fill="#A4C639"></path>
		<path d="M78.4434341,7.11654228 C78.0234231,7.12083758 77.6320498,7.22919946 77.2462398,7.44304537 C75.9792855,8.14533584 75.5626532,9.60121987 76.2667168,10.8713836 L88.782836,33.4820338 C64.7023936,46.0117562 48.4373365,69.8232526 48.4047377,97.1510121 L206.869751,97.1510121 C206.837193,69.8232526 190.572096,46.0117562 166.491645,33.4820338 L179.007777,10.8713836 C179.711837,9.60121987 179.295201,8.14533584 178.02825,7.44304537 C177.642438,7.22919946 177.251067,7.1205455 176.831055,7.11654228 C175.931919,7.10786577 175.079646,7.55712 174.599912,8.42257181 L161.920533,31.2781058 C151.548297,26.6773219 139.914231,24.0949434 127.637245,24.0949434 C115.360249,24.0949434 103.726174,26.6773219 93.3539479,31.2781058 L80.6745686,8.42257181 C80.1948375,7.55712 79.3425576,7.10791732 78.4434341,7.11654228 L78.4434341,7.11654228 Z M48.4047377,103.40907 L48.4047377,218.258109 C48.4047377,228.870039 56.9479173,237.413214 67.5598484,237.413214 L187.714637,237.413214 C198.326576,237.413214 206.869751,228.870039 206.869751,218.258109 L206.869751,103.40907 L48.4047377,103.40907 L48.4047377,103.40907 Z" fill="#A4C639"></path>
		<path d="M91.0681772,54.9226953 C87.4507168,54.9226953 84.4563973,57.9170105 84.4563973,61.5344795 C84.4563973,65.1519399 87.4507168,68.146255 91.0681772,68.146255 C94.6856376,68.146255 97.6799528,65.1519399 97.6799528,61.5344795 C97.6799528,57.9170105 94.6856376,54.9226953 91.0681772,54.9226953 L91.0681772,54.9226953 Z M164.205874,54.9226953 C160.588413,54.9226953 157.59409,57.9170105 157.59409,61.5344795 C157.59409,65.1519399 160.588413,68.146255 164.205874,68.146255 C167.823326,68.146255 170.817649,65.1519399 170.817649,61.5344795 C170.817649,57.9170105 167.823326,54.9226953 164.205874,54.9226953 L164.205874,54.9226953 Z" fill="#FFFFFF"></path>
	</g>
</svg>

<svg width="256" height="301" viewBox="0 0 256 301" xmlns="http://www.w3.org/2000/svg" preserveAspectRatio="xMidYMid"><path d="M78.389.858a8.824 8.824 0 0 0-4.19 1.089c-4.218 2.338-5.765 7.757-3.428 11.972l9.523 17.196C57.35 45.31 42.147 69.558 42.147 97.233v5.142c-4.407-5.07-10.884-8.271-18.121-8.271C10.766 94.104 0 104.87 0 118.129v74.009c0 13.258 10.767 24.025 24.026 24.025 7.237 0 13.714-3.202 18.12-8.272v10.367c0 13.977 11.437 25.413 25.414 25.413h6.448v32.923c0 13.26 10.767 24.026 24.026 24.026s24.025-10.767 24.025-24.026v-32.923h11.156v32.923c0 13.26 10.767 24.026 24.026 24.026s24.025-10.767 24.025-24.026v-32.923h6.449c13.976 0 25.413-11.436 25.413-25.413v-10.367c4.406 5.07 10.884 8.272 18.121 8.272 13.259 0 24.025-10.767 24.025-24.025v-74.009c0-13.259-10.766-24.025-24.025-24.025-7.237 0-13.715 3.201-18.121 8.271v-4.517c.002-.26 0-.468 0-.625 0-27.67-15.238-51.894-38.174-66.09l9.55-17.224c2.336-4.215.79-9.634-3.428-11.972a8.824 8.824 0 0 0-4.19-1.089c-3.115-.03-6.172 1.612-7.782 4.517l-9.986 18.04c-9.764-3.603-20.388-5.578-31.48-5.578-11.082 0-21.726 1.954-31.482 5.55L86.171 5.375C84.56 2.47 81.504.83 78.389.858z" fill="#FFF"/><path d="M24.026 100.362c-9.894 0-17.767 7.873-17.767 17.767v74.009c0 9.894 7.873 17.767 17.767 17.767 9.894 0 17.768-7.873 17.768-17.767v-74.009c0-9.894-7.874-17.767-17.768-17.767zm207.224 0c-9.895 0-17.768 7.873-17.768 17.767v74.009c0 9.894 7.873 17.767 17.768 17.767 9.894 0 17.767-7.873 17.767-17.767v-74.009c0-9.894-7.873-17.767-17.767-17.767zM98.034 184.818c-9.894 0-17.768 7.873-17.768 17.768v74.008c0 9.894 7.874 17.767 17.768 17.767 9.894 0 17.767-7.873 17.767-17.767v-74.008c0-9.895-7.873-17.768-17.767-17.768zm59.207 0c-9.895 0-17.768 7.873-17.768 17.768v74.008c0 9.894 7.873 17.767 17.768 17.767 9.894 0 17.767-7.873 17.767-17.767v-74.008c0-9.895-7.873-17.768-17.767-17.768z" fill="#A4C639"/><path d="M78.443 7.117a2.47 2.47 0 0 0-1.197.326c-1.267.702-1.683 2.158-.98 3.428l12.517 22.611c-24.08 12.53-40.346 36.341-40.378 63.669H206.87c-.033-27.328-16.298-51.14-40.378-63.669l12.516-22.61c.704-1.27.287-2.727-.98-3.429a2.467 2.467 0 0 0-1.197-.326c-.9-.01-1.751.44-2.231 1.306l-12.68 22.855c-10.372-4.6-22.006-7.183-34.283-7.183-12.277 0-23.91 2.582-34.283 7.183L80.674 8.423a2.486 2.486 0 0 0-2.23-1.306zm-30.038 96.292v114.85a19.113 19.113 0 0 0 19.155 19.154h120.155a19.113 19.113 0 0 0 19.155-19.155V103.41H48.405z" fill="#A4C639"/><path d="M91.068 54.923c-3.617 0-6.612 2.994-6.612 6.611 0 3.618 2.995 6.612 6.612 6.612 3.618 0 6.612-2.994 6.612-6.612 0-3.617-2.994-6.611-6.612-6.611zm73.138 0c-3.618 0-6.612 2.994-6.612 6.611 0 3.618 2.994 6.612 6.612 6.612 3.617 0 6.612-2.994 6.612-6.612 0-3.617-2.995-6.611-6.612-6.611z" fill="#FFF"/></svg>
